svg/aws-eks-cluster.svg

<?xml version="1.0" encoding="UTF-8"?>
<svg xmlns="http://www.w3.org/2000/svg" xmlns:xlink="http://www.w3.org/1999/xlink" width="28.530001" height="32" viewBox="0 0 28.530001 32">
<defs>
<linearGradient id="linear-pattern-0" gradientUnits="userSpaceOnUse" x1="0.855" y1="0.974" x2="0.059" y2="-0.037" gradientTransform="matrix(6.82422, 0, 0, 8.84375, 11.371, 11.18)">
<stop offset="0" stop-color="rgb(30.980392%, 40%, 72.54902%)" stop-opacity="1"/>
<stop offset="0.01" stop-color="rgb(28.235294%, 30.980392%, 67.058824%)" stop-opacity="1"/>
</linearGradient>
<linearGradient id="linear-pattern-1" gradientUnits="userSpaceOnUse" x1="1.106" y1="0.943" x2="0.145" y2="-0.035" gradientTransform="matrix(12.80469, 0, 0, 21.679689, 15.16, 0.617)">
<stop offset="0" stop-color="rgb(30.980392%, 40%, 72.54902%)" stop-opacity="1"/>
<stop offset="0.01" stop-color="rgb(28.235294%, 30.980392%, 67.058824%)" stop-opacity="1"/>
</linearGradient>
<linearGradient id="linear-pattern-2" gradientUnits="userSpaceOnUse" x1="0.63" y1="0.945" x2="0.117" y2="0.176" gradientTransform="matrix(26.136721, 0, 0, 30.773439, 0.617, 0.617)">
<stop offset="0" stop-color="rgb(29.803922%, 40.784314%, 73.333333%)" stop-opacity="1"/>
<stop offset="0.01" stop-color="rgb(31.764706%, 50.196078%, 78.823529%)" stop-opacity="1"/>
</linearGradient>
</defs>
<path fill-rule="nonzero" fill="url(#linear-pattern-0)" d="M 11.371094 11.179688 L 12.636719 11.179688 L 12.636719 14.90625 L 16.273438 11.179688 L 17.941406 11.179688 L 13.949219 15.285156 L 18.195312 20.023438 L 16.578125 20.023438 L 12.636719 15.601562 L 12.636719 20.023438 L 11.371094 20.023438 Z M 11.371094 11.179688 "/>
<path fill-rule="nonzero" fill="url(#linear-pattern-1)" d="M 15.332031 7.671875 L 21.554688 11.261719 C 21.660156 11.324219 21.726562 11.4375 21.726562 11.558594 L 21.726562 18.746094 C 21.726562 18.867188 21.792969 18.980469 21.898438 19.042969 L 27.449219 22.25 C 27.554688 22.3125 27.6875 22.3125 27.792969 22.25 C 27.898438 22.191406 27.964844 22.074219 27.964844 21.953125 L 27.964844 7.957031 C 27.964844 7.835938 27.898438 7.722656 27.792969 7.660156 L 15.675781 0.660156 C 15.570312 0.601562 15.4375 0.601562 15.332031 0.664062 C 15.226562 0.726562 15.160156 0.835938 15.160156 0.960938 L 15.160156 7.371094 C 15.15625 7.496094 15.222656 7.613281 15.332031 7.671875 "/>
<path fill-rule="nonzero" fill="url(#linear-pattern-2)" d="M 20.683594 20.546875 L 14.460938 24.140625 C 14.355469 24.203125 14.222656 24.203125 14.117188 24.140625 L 7.027344 20.046875 C 6.921875 19.984375 6.855469 19.871094 6.855469 19.75 L 6.855469 11.558594 C 6.855469 11.4375 6.921875 11.324219 7.027344 11.261719 L 13.25 7.667969 C 13.351562 7.601562 13.414062 7.492188 13.421875 7.371094 L 13.421875 0.960938 C 13.417969 0.839844 13.351562 0.726562 13.246094 0.664062 C 13.140625 0.605469 13.011719 0.601562 12.90625 0.660156 L 0.785156 7.660156 C 0.679688 7.722656 0.613281 7.835938 0.617188 7.957031 L 0.617188 23.351562 C 0.617188 23.472656 0.679688 23.585938 0.785156 23.648438 L 14.117188 31.347656 C 14.222656 31.40625 14.351562 31.40625 14.460938 31.347656 L 26.582031 24.347656 C 26.6875 24.289062 26.753906 24.171875 26.753906 24.050781 C 26.746094 23.929688 26.683594 23.820312 26.582031 23.753906 L 21.027344 20.546875 C 20.921875 20.484375 20.789062 20.484375 20.683594 20.546875 "/>
</svg>

<svg role="img" viewBox="0 0 28.53 32" height="32" width="28.53" xmlns="http://www.w3.org/2000/svg"><defs><linearGradient gradientTransform="matrix(12.80469 0 0 21.67969 15.16 .617)" gradientUnits="userSpaceOnUse" id="231__228__118__115__aws-eks-cluster-lp-1" x1="1.106" x2=".145" y1=".943" y2="-.035"><stop offset="0" stop-color="rgb(30.980392%, 40%, 72.54902%)"/><stop offset=".01" stop-color="rgb(28.235294%, 30.980392%, 67.058824%)"/></linearGradient><linearGradient gradientTransform="matrix(26.13672 0 0 30.77344 .617 .617)" gradientUnits="userSpaceOnUse" id="232__229__119__116__linear-pattern-2" x1=".63" x2=".117" y1=".945" y2=".176"><stop offset="0" stop-color="rgb(29.803922%, 40.784314%, 73.333333%)"/><stop offset=".01" stop-color="rgb(31.764706%, 50.196078%, 78.823529%)"/></linearGradient></defs><path d="M11.371 11.18h1.266v3.726l3.636-3.726h1.668l-3.992 4.105 4.246 4.738h-1.617l-3.941-4.421v4.421H11.37Zm0 0" fill="url(#233__230__117__114__linear-pattern-0)"/><path d="m15.332 7.672 6.223 3.59a.348.348 0 0 1 .172.297v7.187c0 .121.066.234.171.297l5.551 3.207a.343.343 0 0 0 .516-.297V7.957a.348.348 0 0 0-.172-.297l-12.117-7a.348.348 0 0 0-.516.3v6.411a.33.33 0 0 0 .172.3" fill="url(#231__228__118__115__linear-pattern-1)"/><path d="M20.684 20.547 14.46 24.14a.339.339 0 0 1-.344 0l-7.09-4.094a.348.348 0 0 1-.172-.297v-8.191c0-.121.067-.235.172-.297l6.223-3.594a.382.382 0 0 0 .172-.297V.961a.36.36 0 0 0-.176-.297.35.35 0 0 0-.34-.004l-12.12 7a.336.336 0 0 0-.169.297v15.395c0 .12.063.234.168.296l13.332 7.7a.358.358 0 0 0 .344 0l12.121-7a.348.348 0 0 0 .172-.297.382.382 0 0 0-.172-.297l-5.555-3.207a.339.339 0 0 0-.343 0" fill="url(#232__229__119__116__linear-pattern-2)"/></svg>
